X:1
T:Wells Humour
T:Wells Humour
T:Purcell
C:Purcell
L:1/8
M:3/4
K:Emin
V:1 treble 
V:1
 e/f/ | g e2 d/c/ Bc/d/ | e E2 F/G/ AB/c/ | Be/d/ c/B/A/G/ F/G/A/F/ | G E2 B ee/f/ | %5
 g e2 d/c/ Bc/d/ | e E2 F/G/ AB/c/ | Be/d/ c/B/A/G/ F/G/A/F/ | G E2 B eg/f/ | e g2 f/e/ d/e/d/c/ | %10
 B d2 d/e/ d/c/B/A/ | G/B/d B/d/g d/g/b | g d2 g/a/ b/a/g/f/ | e g2 f/g/ a/g/f/e/ | %14
 ^d f2 g/f/ e=d/c/ | Be/d/ c/B/A/G/ F/G/A/F/ | G E2 B e || %17

